X:1
T:Thomas Hastings
T:Illinois
%%score { ( 1 2 ) | ( 3 4 ) }
L:1/8
M:2/2
K:Eb
V:1 treble 
V:2 treble 
V:3 bass 
V:4 bass 
V:1
 (E3 F) | (G3 A) (B3 c) | B4 G4 | F4 (G2 A2) | G4 F4 | G4 B4 | e4 c4 | B4 =A4 | B4 B4 | e4 (f3 d) | %10
 e4 B4 | c4 (B2 G2) | F4 (E3 F) | (G3 A) (B3 c) | B4 e4 | f4 (e2 d2) | e4 |] %17
V:2
 E4 | (E3 F) (G3 A) | G4 E4 | D4 (E2 F2) | E4 D4 | E4 F4 | G4 G4 | F4 E4 | D4 E4 | G4 (A3 F) | %10
 G4 G4 | A4 (G2 E2) | D4 E4 | (E3 F) (G3 A) | G4 G4 | A4 (G2 F2) | G4 |] %17
V:3
 (G,3 A,) | B,4 E4 | E4 B,4 | B,4 B,4 | B,4 B,4 | B,4 F4 | E4 E4 | D4 C4 | B,4 G,4 | B,4 B,4 | %10
 B,4 E4 | E4 B,4 | B,4 (G,3 A,) | B,4 E4 | E4 E4 | C4 B,4 | B,4 |] %17
V:4
 E,4 | E,4 E,4 | E,4 E,4 | B,,4 B,,4 | E,4 B,,4 | E,4 D,4 | C,4 E,4 | F,4 F,4 | B,,4 E,4 | %9
 E,4 B,,4 | E,4 E,4 | E,4 E,4 | B,,4 E,4 | E,4 E,4 | E,4 C,4 | A,,4 B,,4 | E,4 |] %17

